sources/design/Outline/comma.svg

<svg:svg xmlns:cc="http://creativecommons.org/ns#" xmlns:dc="http://purl.org/dc/elements/1.1/" xmlns:inkscape="http://www.inkscape.org/namespaces/inkscape" xmlns:rdf="http://www.w3.org/1999/02/22-rdf-syntax-ns#" xmlns:sodipodi="http://sodipodi.sourceforge.net/DTD/sodipodi-0.dtd" xmlns:svg="http://www.w3.org/2000/svg" xml:space="preserve" width="1000" height="1000" version="1.1" style="clip-rule:evenodd;fill-rule:evenodd;image-rendering:optimizeQuality;shape-rendering:geometricPrecision;text-rendering:geometricPrecision" viewBox="0 0 1000 1000" id="svg10" sodipodi:docname="comma.svg" inkscape:version="1.0.2 (e86c870879, 2021-01-15)"><svg:metadata id="metadata14"><rdf:RDF><cc:Work rdf:about=""><dc:format>image/svg+xml</dc:format><dc:type rdf:resource="http://purl.org/dc/dcmitype/StillImage" /><dc:title /></cc:Work></rdf:RDF></svg:metadata><sodipodi:namedview pagecolor="#ffffff" bordercolor="#666666" borderopacity="1" objecttolerance="10" gridtolerance="10" guidetolerance="10" inkscape:pageopacity="0" inkscape:pageshadow="2" inkscape:window-width="1920" inkscape:window-height="1127" id="namedview12" showgrid="false" inkscape:zoom="0.84890884" inkscape:cx="169.61082" inkscape:cy="658.69096" inkscape:window-x="0" inkscape:window-y="0" inkscape:window-maximized="1" inkscape:current-layer="svg10" showguides="true" inkscape:guide-bbox="true" inkscape:document-rotation="0" inkscape:pagecheckerboard="0"><sodipodi:guide position="0,1000" orientation="0,1" id="guide16" inkscape:label="" inkscape:locked="true" inkscape:color="rgb(0,0,255)" /><sodipodi:guide position="1763.3122,2036.1693" orientation="1000,0" id="guide18" /><sodipodi:guide position="0,200" orientation="0,1" id="guide20" inkscape:label="base" inkscape:locked="true" inkscape:color="rgb(0,0,255)" /><inkscape:grid type="xygrid" id="grid24" originx="-473.37552" originy="-489.69235" /><sodipodi:guide position="0,0" orientation="0,1" id="guide34" inkscape:label="bottom" inkscape:locked="true" inkscape:color="rgb(0,0,255)" /><sodipodi:guide position="225.05109,1693.3186" orientation="0,1" id="guide44" inkscape:label="" inkscape:locked="false" inkscape:color="rgb(0,0,255)" /><sodipodi:guide position="0,900" orientation="0,1" id="guide46" inkscape:label="" inkscape:locked="true" inkscape:color="rgb(0,0,255)" /><sodipodi:guide position="205.64054,587.19806" orientation="1,0" id="guide841" inkscape:label="width" />    </sodipodi:namedview>
 <svg:defs id="defs4"><inkscape:path-effect effect="fillet_chamfer" id="path-effect855" is_visible="true" lpeversion="1" satellites_param="F,0,0,1,0,19.160778,0,1 @ F,0,0,1,0,15.423582,0,1 @ F,0,0,1,0,0,0,1 @ F,0,0,1,0,14.652387,0,1 @ F,0,0,1,0,34.910698,0,1 @ F,0,0,1,0,0,0,1" unit="px" method="auto" mode="F" radius="0" chamfer_steps="1" flexible="false" use_knot_distance="true" apply_no_radius="true" apply_with_radius="true" only_selected="true" hide_knots="false" /><inkscape:path-effect effect="spiro" id="path-effect860" is_visible="true" lpeversion="1" /><inkscape:path-effect effect="spiro" id="path-effect862" is_visible="true" lpeversion="1" /><inkscape:path-effect effect="spiro" id="path-effect857" is_visible="true" lpeversion="1" /><inkscape:path-effect effect="spiro" id="path-effect853" is_visible="true" lpeversion="1" /><inkscape:path-effect effect="spiro" id="path-effect928" is_visible="true" lpeversion="1" /><inkscape:path-effect effect="spiro" id="path-effect921" is_visible="true" lpeversion="1" /><inkscape:path-effect effect="spiro" id="path-effect917" is_visible="true" lpeversion="1" /><inkscape:path-effect effect="spiro" id="path-effect849" is_visible="true" lpeversion="1" /><inkscape:path-effect effect="spiro" id="path-effect851" is_visible="true" lpeversion="1" />
  <svg:style type="text/css" id="style2">
   
    .fil0 {fill:#EF7F1A;fill-rule:nonzero}
   
  </svg:style>
 <inkscape:path-effect effect="spiro" id="path-effect1214" is_visible="true" lpeversion="1" /><inkscape:path-effect effect="spiro" id="path-effect1195" is_visible="true" lpeversion="1" /><inkscape:path-effect effect="spiro" id="path-effect992" is_visible="true" lpeversion="1" /><inkscape:path-effect effect="spiro" id="path-effect1060" is_visible="true" lpeversion="1" /><inkscape:path-effect effect="spiro" id="path-effect1047" is_visible="true" lpeversion="1" /><inkscape:path-effect effect="spiro" id="path-effect1085" is_visible="true" lpeversion="1" /><inkscape:path-effect effect="spiro" id="path-effect1286" is_visible="true" lpeversion="1" /></svg:defs>
 
<svg:g id="path860"><svg:path style="color:#000000;fill:#1a5fb4;stroke-linecap:round;stroke-linejoin:round;-inkscape-stroke:none;paint-order:fill stroke markers;fill-rule:nonzero" d="M 171.83594,632.53516 C 168.72051,632.6547800000001 165.64003,633.09982 162.67382999999998,633.86328 L 33.089844,667.2168 C 20.478827,670.46271 8.0842827,680.0154 2.689453099999998,692.81836 C -2.7053765000000016,705.62132 -1.168095700000002,719.61669 4.035156199999998,730.6543 C 14.461450999999999,752.7714900000001 18.960797999999997,777.99153 16.683594,802.19141 C 14.159987,829.0097900000001 3.0251304999999995,855.5437900000001 -14.255859000000001,876.6269500000001 C -23.213426,887.55537 -33.929292000000004,902.5840200000001 -25.943359,924.1503900000001 C -21.950393000000002,934.9335800000001 -12.605107,942.8031100000002 -4.544921900000002,946.3769500000001 C 3.5152630999999985,949.9507900000001 10.848205999999998,950.83811 18.238280999999997,951.0351600000001 L 70.755859,952.4355500000001 C 90.482643,952.9615300000002 104.06426,948.1616000000001 118.39063,932.7265600000002 C 138.66781,910.8801900000002 156.25027,886.5738000000001 170.64258,860.4570300000001 C 202.00753,803.5411100000001 217.66316,738.5304700000002 215.86523,673.6425800000002 C 215.51659,661.0600400000002 209.12839,648.0643300000002 198.67969,640.4550800000002 C 190.84315999999998,634.7481400000001 181.18221,632.1762800000001 171.83594,632.5351600000001 L 171.83594,632.53516 M 155.61523,697.63477 C 153.4492,744.3095 140.59355,790.67108 118.09375,831.5 C 106.07946,853.30154 91.356973,873.65609 74.414062,891.91016 C 77.731053,888.33648 68.805546,892.36048 72.353516,892.4550800000001 L 48.300781,891.8144500000001 C 63.75568,866.4512400000001 73.605456,837.7218500000001 76.419922,807.8125000000001 C 79.194999,778.3217400000001 75.074878,748.5897800000001 64.882812,720.9882800000001 L 155.61523,697.63477" id="path29826" /></svg:g></svg:svg>

<svg:svg xmlns:cc="http://creativecommons.org/ns#" xmlns:dc="http://purl.org/dc/elements/1.1/" xmlns:inkscape="http://www.inkscape.org/namespaces/inkscape" xmlns:rdf="http://www.w3.org/1999/02/22-rdf-syntax-ns#" xmlns:sodipodi="http://sodipodi.sourceforge.net/DTD/sodipodi-0.dtd" xmlns:svg="http://www.w3.org/2000/svg" xml:space="preserve" width="1000" height="1000" version="1.1" style="clip-rule:evenodd;fill-rule:evenodd;image-rendering:optimizeQuality;shape-rendering:geometricPrecision;text-rendering:geometricPrecision" viewBox="0 0 1000 1000" id="svg10" sodipodi:docname="comma.svg" inkscape:version="1.0.2 (e86c870879, 2021-01-15)"><svg:metadata id="metadata14"><rdf:RDF><cc:Work rdf:about=""><dc:format>image/svg+xml</dc:format><dc:type rdf:resource="http://purl.org/dc/dcmitype/StillImage" /><dc:title /></cc:Work></rdf:RDF></svg:metadata><sodipodi:namedview pagecolor="#ffffff" bordercolor="#666666" borderopacity="1" objecttolerance="10" gridtolerance="10" guidetolerance="10" inkscape:pageopacity="0" inkscape:pageshadow="2" inkscape:window-width="1920" inkscape:window-height="1127" id="namedview12" showgrid="false" inkscape:zoom="0.84890884" inkscape:cx="169.61082" inkscape:cy="658.69096" inkscape:window-x="0" inkscape:window-y="0" inkscape:window-maximized="1" inkscape:current-layer="svg10" showguides="true" inkscape:guide-bbox="true" inkscape:document-rotation="0" inkscape:pagecheckerboard="0"><sodipodi:guide position="0,1000" orientation="0,1" id="guide16" inkscape:label="" inkscape:locked="true" inkscape:color="rgb(0,0,255)" /><sodipodi:guide position="1763.3122,2036.1693" orientation="1000,0" id="guide18" /><sodipodi:guide position="0,200" orientation="0,1" id="guide20" inkscape:label="base" inkscape:locked="true" inkscape:color="rgb(0,0,255)" /><inkscape:grid type="xygrid" id="grid24" originx="-473.37552" originy="-489.69235" /><sodipodi:guide position="0,0" orientation="0,1" id="guide34" inkscape:label="bottom" inkscape:locked="true" inkscape:color="rgb(0,0,255)" /><sodipodi:guide position="225.05109,1693.3186" orientation="0,1" id="guide44" inkscape:label="" inkscape:locked="false" inkscape:color="rgb(0,0,255)" /><sodipodi:guide position="0,900" orientation="0,1" id="guide46" inkscape:label="" inkscape:locked="true" inkscape:color="rgb(0,0,255)" /><sodipodi:guide position="205.64054,587.19806" orientation="1,0" id="guide841" inkscape:label="width" />    </sodipodi:namedview>
 <svg:defs id="defs4"><inkscape:path-effect effect="fillet_chamfer" id="path-effect855" is_visible="true" lpeversion="1" satellites_param="F,0,0,1,0,19.160778,0,1 @ F,0,0,1,0,15.423582,0,1 @ F,0,0,1,0,0,0,1 @ F,0,0,1,0,14.652387,0,1 @ F,0,0,1,0,34.910698,0,1 @ F,0,0,1,0,0,0,1" unit="px" method="auto" mode="F" radius="0" chamfer_steps="1" flexible="false" use_knot_distance="true" apply_no_radius="true" apply_with_radius="true" only_selected="true" hide_knots="false" /><inkscape:path-effect effect="spiro" id="path-effect860" is_visible="true" lpeversion="1" /><inkscape:path-effect effect="spiro" id="path-effect862" is_visible="true" lpeversion="1" /><inkscape:path-effect effect="spiro" id="path-effect857" is_visible="true" lpeversion="1" /><inkscape:path-effect effect="spiro" id="path-effect853" is_visible="true" lpeversion="1" /><inkscape:path-effect effect="spiro" id="path-effect928" is_visible="true" lpeversion="1" /><inkscape:path-effect effect="spiro" id="path-effect921" is_visible="true" lpeversion="1" /><inkscape:path-effect effect="spiro" id="path-effect917" is_visible="true" lpeversion="1" /><inkscape:path-effect effect="spiro" id="path-effect849" is_visible="true" lpeversion="1" /><inkscape:path-effect effect="spiro" id="path-effect851" is_visible="true" lpeversion="1" />
  <svg:style type="text/css" id="style2">
   
    .fil0 {fill:#EF7F1A;fill-rule:nonzero}
   
  </svg:style>
 <inkscape:path-effect effect="spiro" id="path-effect1214" is_visible="true" lpeversion="1" /><inkscape:path-effect effect="spiro" id="path-effect1195" is_visible="true" lpeversion="1" /><inkscape:path-effect effect="spiro" id="path-effect992" is_visible="true" lpeversion="1" /><inkscape:path-effect effect="spiro" id="path-effect1060" is_visible="true" lpeversion="1" /><inkscape:path-effect effect="spiro" id="path-effect1047" is_visible="true" lpeversion="1" /><inkscape:path-effect effect="spiro" id="path-effect1085" is_visible="true" lpeversion="1" /><inkscape:path-effect effect="spiro" id="path-effect1286" is_visible="true" lpeversion="1" /></svg:defs>
 
<svg:g id="path860"><svg:path style="color:#000000;fill:#1a5fb4;stroke-linecap:round;stroke-linejoin:round;-inkscape-stroke:none;fill-rule:nonzero" d="m 171.83594,632.53516 c -3.11543,0.11962 -6.19591,0.56466 -9.16211,1.32812 L 33.089844,667.2168 c -12.611017,3.24591 -25.0055613,12.7986 -30.4003909,25.60156 -5.3948296,12.80296 -3.8575488,26.79833 1.3457031,37.83594 10.4262948,22.11719 14.9256418,47.33723 12.6484378,71.53711 -2.523607,26.81838 -13.6584635,53.35238 -30.939453,74.43554 -8.957567,10.92842 -19.673433,25.95707 -11.6875,47.52344 3.992966,10.78319 13.338252,18.65272 21.3984371,22.22656 8.060185,3.57384 15.3931279,4.46116 22.7832029,4.65821 l 52.517578,1.40039 c 19.726784,0.52598 33.308401,-4.27395 47.634771,-19.70899 20.27718,-21.84637 37.85964,-46.15276 52.25195,-72.26953 31.36495,-56.91592 47.02058,-121.92656 45.22265,-186.81445 -0.34864,-12.58254 -6.73684,-25.57825 -17.18554,-33.1875 -7.83653,-5.70694 -17.49748,-8.2788 -26.84375,-7.91992 z m -16.22071,65.09961 C 153.4492,744.3095 140.59355,790.67108 118.09375,831.5 c -12.01429,21.80154 -26.736777,42.15609 -43.679688,60.41016 3.316991,-3.57368 -5.608516,0.45032 -2.060546,0.54492 l -24.052735,-0.64063 c 15.454899,-25.36321 25.304675,-54.0926 28.119141,-84.00195 2.775077,-29.49076 -1.345044,-59.22272 -11.53711,-86.82422 z" id="path29738" /></svg:g></svg:svg>
